X: 1
T: The Girl I Left Behind Me
R: polka
M: 2/4
L: 1/8
K: Gmaj
|:g/f/|ed BA|BG E>F|G2 G/A/B/c/|d2 dg/f/|
ed BA|BG E>G|FA DE/F/|G2 G:|
|:z/A/|Bd ef|gd BG|Bd ef|g2 f>^c|
ed BA|BG E>G|FA DE/F/|G2 G:|


Tune 5418	Setting 17579

